X:1
T:To and Fro
T:To and Fro
T:Henry Tucker
T:Henry Tucker (1826-1882)
T:Public Domain Courtesy of the Cyber Hymnal™
C:Henry Tucker
Z:Public Domain
Z:Courtesy of the Cyber Hymnal™
%%score ( 1 2 ) ( 3 4 )
L:1/8
Q:1/4=85
M:2/4
K:G
V:1 treble 
V:2 treble 
V:3 bass 
V:4 bass 
V:1
 [DB]D [DG]2 | [DB]D [DG]2 | [DF][FA] [FA][Fc] | [Fc][Fe] [Ge][Gd] | [DB]D [DG]2 | [DB]D [DG]2 | %6
w: 1.~To and fro,|to and fro,|Hear the tread of|lit- tle child- ren,|As they go,|as they go;|
w: 2.~To and fro,|to and fro,|Hear the tread of|lit- tle child- ren,|As they go,|as they go;|
w: 3.~To and fro,|to and fro,|Heard the tread of|lit- tle child- ren,|As they go,|as they go;|
 [DF]F [Fc][Fe] | [Fd][DF] !fermata![DG]2 | [FA][FA] [Fd]2 | [G^c][Ge] [EG]2 | [DF][^CG] [DA][DB] | %11
w: Bu- sy march of|bu- sy feet!|Here and there,|ev- ery- where,|Joy- ous songs we’re|
w: Bu- sy march of|bu- sy feet!|We will tell,|we will tell,|Of the won- drous|
w: Bu- sy march of|bu- sy feet!|Thro’ the world,|thro’ the world,|Do- ing an- gels’|
 [DA]2 [DF]2 | [FA][FA] [Fd]2 | [G^c][Ge] [EG]2 | [DF][DA] [DB][G^c] | [Ge]2 [Fd]2 || %16
w: sing- ing;|Loud and clear,|full of cheer,|Hap- py tones are|ring- ing.|
w: sto- ry,|While we raise|songs of praise|To our Lord in|glo- ry.|
w: du- ty,|Bright and fair,|bright and fair,|Clothed in an- gel|beau- ty.|
"^Refrain" [DB]D [DG]2 | [DB]D [DG]2 | [DF][FA] [FA][Fc] | [Fc][Fe] [Ge][Gd] | [DB]D [DG]2 | %21
w: |||||
w: To and fro,|to and fro,|Hear the tread of|lit- tle child- ren,|As they go,|
w: |||||
 [DB]D [DG]2 | [DF][FA] [Fc][Fe] | [Fd][DF] !fermata![DG]2 |] %24
w: |||
w: as they go;|Bu- sy march of|bu- sy feet!|
w: |||
V:2
 x D x2 | x D x2 | x4 | x4 | x D x2 | x D x2 | x4 | x4 | x4 | x4 | x4 | x4 | x4 | x4 | x4 | x4 || %16
 x D x2 | x D x2 | x4 | x4 | x D x2 | x D x2 | x4 | x4 |] %24
V:3
 G,[G,B,] [G,B,]2 | G,[G,B,] [G,B,]2 | [D,B,][D,D] [D,D][D,A,] | [D,A,][D,C] [G,C][G,B,] | %4
 G,[G,B,] [G,B,]2 | G,[G,B,] [G,B,]2 | [D,A,][D,D] [D,D][D,C] | [D,A,][D,C] !fermata![G,B,]2 | %8
 [D,D][D,D] [D,A,]2 | [A,,A,][A,,A,] [A,,A,]2 | [D,A,][E,A,] [F,A,]G, | [F,A,]2 [D,A,]2 | %12
 [D,D][D,D] [D,A,]2 | [A,,A,][A,,A,] [A,,A,]2 | [D,A,][D,F,] [G,,G,][A,,E,] | [A,,A,]2 [D,A,]2 || %16
 G,[G,B,] [G,B,]2 | G,[G,B,] [G,B,]2 | [D,A,][D,D] [D,D][D,A,] | [D,A,][D,C] [G,C][G,B,] | %20
 G,[G,B,] [G,B,]2 | G,[G,B,] [G,B,]2 | [D,A,][D,D] [D,D][D,C] | [D,A,][D,C] !fermata![G,B,]2 |] %24
V:4
 G, x3 | G, x3 | x4 | x4 | G, x3 | G, x3 | x4 | x4 | x4 | x4 | x3 G, | x4 | x4 | x4 | x4 | x4 || %16
 G, x3 | G, x3 | x4 | x4 | G, x3 | G, x3 | x4 | x4 |] %24

